styles/2/Numix/96/places/orange-folder-hdd.svg

<?xml version="1.0" encoding="UTF-8" standalone="no"?>
<!-- Created with Inkscape (http://www.inkscape.org/) -->

<svg
   xmlns:dc="http://purl.org/dc/elements/1.1/"
   xmlns:cc="http://creativecommons.org/ns#"
   xmlns:rdf="http://www.w3.org/1999/02/22-rdf-syntax-ns#"
   xmlns:svg="http://www.w3.org/2000/svg"
   xmlns="http://www.w3.org/2000/svg"
   xmlns:sodipodi="http://sodipodi.sourceforge.net/DTD/sodipodi-0.dtd"
   xmlns:inkscape="http://www.inkscape.org/namespaces/inkscape"
   width="96"
   height="96"
   id="svg2"
   version="1.1"
   inkscape:version="0.91 r"
   sodipodi:docname="orange-folder-hdd.svg">
  <defs
     id="defs4" />
  <sodipodi:namedview
     id="base"
     pagecolor="#ffffff"
     bordercolor="#666666"
     borderopacity="1.0"
     inkscape:pageopacity="0.0"
     inkscape:pageshadow="2"
     inkscape:zoom="8.815"
     inkscape:cx="44.340483"
     inkscape:cy="48.241586"
     inkscape:document-units="px"
     inkscape:current-layer="layer1"
     showgrid="true"
     inkscape:window-width="1280"
     inkscape:window-height="998"
     inkscape:window-x="0"
     inkscape:window-y="0"
     inkscape:window-maximized="1">
    <inkscape:grid
       type="xygrid"
       id="grid2990"
       empspacing="5"
       visible="true"
       enabled="true"
       snapvisiblegridlinesonly="true" />
  </sodipodi:namedview>
  <metadata
     id="metadata7">
    <rdf:RDF>
      <cc:Work
         rdf:about="">
        <dc:format>image/svg+xml</dc:format>
        <dc:type
           rdf:resource="http://purl.org/dc/dcmitype/StillImage" />
        <dc:title />
      </cc:Work>
    </rdf:RDF>
  </metadata>
  <g
     inkscape:label="Body"
     inkscape:groupmode="layer"
     id="layer1"
     transform="translate(0,-956.3622)">
    <path
       style="font-size:medium;font-style:normal;font-variant:normal;font-weight:normal;font-stretch:normal;text-indent:0;text-align:start;text-decoration:none;line-height:normal;letter-spacing:normal;word-spacing:normal;text-transform:none;direction:ltr;block-progression:tb;writing-mode:lr-tb;text-anchor:start;baseline-shift:baseline;color:#000000;fill:#f57c00;fill-opacity:1;fill-rule:nonzero;stroke:none;stroke-width:1;marker:none;visibility:visible;display:inline;overflow:visible;enable-background:accumulate;font-family:Sans;-inkscape-font-specification:Sans"
       d="m 12.000041,968.36224 c -1.999999,0 -3.999998,2 -3.999998,3.99999 l 0,4 -1.999999,0 c -1.999999,0 -4.0111358,1.8984 -3.999998,4 l 0,55.99997 c 2.56e-4,2.2414 2.075525,3.9998 4.3749978,4 l 83.2499582,0 c 2.374999,0 4.374998,-2 4.374998,-4 l 0,-49.99997 c 0,-2 -1.999999,-4 -3.999998,-4 l -3.999998,0 0,-10 c 0,-1.99999 -1.999999,-3.99999 -3.999998,-3.99999 z"
       id="path3770"
       inkscape:connector-curvature="0"
       sodipodi:nodetypes="sscsccccccccsss" />
    <path
       inkscape:connector-curvature="0"
       style="font-size:medium;font-style:normal;font-variant:normal;font-weight:normal;font-stretch:normal;text-indent:0;text-align:start;text-decoration:none;line-height:normal;letter-spacing:normal;word-spacing:normal;text-transform:none;direction:ltr;block-progression:tb;writing-mode:lr-tb;text-anchor:start;baseline-shift:baseline;color:#000000;fill:#000000;fill-opacity:0.32156863;fill-rule:nonzero;stroke:none;stroke-width:1;marker:none;visibility:visible;display:inline;overflow:visible;enable-background:accumulate;font-family:Sans;-inkscape-font-specification:Sans"
       d="m 12.000041,968.36224 c -1.999999,0 -3.999998,2 -3.999998,3.99999 l 0,4 -1.999999,0 c -1.999999,0 -4.0111358,1.8984 -3.999998,4 l 0,55.99997 c 2.56e-4,2.2414 2.075525,3.9998 4.3749978,4 l 83.2499582,0 c 2.374999,0 4.374998,-2 4.374998,-4 l 0,-49.99997 c 0,-2 -1.999999,-4 -3.999998,-4 l -3.999998,0 0,-10 c 0,-1.99999 -1.999999,-3.99999 -3.999998,-3.99999 l -69.999965,0 z m -5.999997,9.99999 47.999976,0 c 1.014627,0 1.999999,0.9884 1.999999,2 l 0,4 33.999983,0 c 1.081715,0 1.999999,0.9436 1.999999,2 l 0,49.99997 c 0,1.1076 -0.90423,2 -1.999999,2 l -83.999958,0 c -1.0254515,0 -1.999999,-0.8924 -1.999999,-2 l 0,-55.99997 c 0,-1.0866 0.9580835,-2 1.999999,-2 z"
       id="path3779" />
    <g
       id="g3038"
       transform="matrix(1.999999,0,0,1.999999,31.999985,996.36222)"
       style="fill:#000000;fill-opacity:0.32156863">
      <path
         sodipodi:nodetypes="sssssssssssssssssssssssssssssssssssssssss"
         inkscape:connector-curvature="0"
         id="rect2984"
         d="M 3,0 C 1.892,0 1,0.892 1,2 l 0,12 c 0,1.108 0.892,2 2,2 l 10,0 c 1.108,0 2,-0.892 2,-2 L 15,2 C 15,0.892 14.108,0 13,0 z M 4,2 C 4.5522847,2 5,2.4477153 5,3 5,3.5522847 4.5522847,4 4,4 3.4477153,4 3,3.5522847 3,3 3,2.4477153 3.4477153,2 4,2 z m 8,0 c 0.552285,0 1,0.447715 1,1 0,0.552285 -0.447715,1 -1,1 C 11.447715,4 11,3.552285 11,3 11,2.447715 11.447715,2 12,2 z M 8,3 C 9.6568542,3 11,4.3431458 11,6 11,7.6568542 9.6568542,9 8,9 6.3431458,9 5,7.6568542 5,6 5,4.3431458 6.3431458,3 8,3 z M 4,8 C 4.5522847,8 5,8.4477153 5,9 5,9.5522847 4.5522847,10 4,10 3.4477153,10 3,9.5522847 3,9 3,8.4477153 3.4477153,8 4,8 z m 8,0 c 0.552285,0 1,0.4477153 1,1 0,0.5522847 -0.447715,1 -1,1 -0.552285,0 -1,-0.4477153 -1,-1 0,-0.5522847 0.447715,-1 1,-1 z m -8.5,5 9,0 c 0.277,0 0.5,0.223 0.5,0.5 0,0.277 -0.223,0.5 -0.5,0.5 l -9,0 C 3.223,14 3,13.777 3,13.5 3,13.223 3.223,13 3.5,13 z"
         style="fill:#000000;fill-opacity:0.32156863;stroke:none" />
      <path
         sodipodi:type="arc"
         style="fill:#000000;fill-opacity:0.32156863;stroke:none"
         id="path3007"
         sodipodi:cx="-5.5308571"
         sodipodi:cy="5.9514151"
         sodipodi:rx="1.9538915"
         sodipodi:ry="2.4191039"
         d="m -3.5769656,5.9514151 c 0,1.3360341 -0.874787,2.4191038 -1.9538915,2.4191038 -1.0791045,0 -1.9538915,-1.0830697 -1.9538915,-2.4191038 0,-1.3360342 0.874787,-2.4191039 1.9538915,-2.4191039 1.0791045,0 1.9538915,1.0830697 1.9538915,2.4191039 z"
         transform="matrix(0.51179914,0,0,0.41337621,10.830688,3.5398266)" />
    </g>
  </g>
</svg>

<!-- Created with Inkscape (http://www.inkscape.org/) -->
<svg xmlns="http://www.w3.org/2000/svg" viewBox="0 0 96 96">
 <g transform="translate(0,-956.3622)">
  <path d="m 12 968.36 c -2 0 -4 2 -4 4 l 0 4 -2 0 c -2 0 -4.01 1.898 -4 4 l 0 56 c 0 2.241 2.076 4 4.375 4 l 83.25 0 c 2.375 0 4.375 -2 4.375 -4 l 0 -50 c 0 -2 -2 -4 -4 -4 l -4 0 0 -10 c 0 -2 -2 -4 -4 -4 z" style="visibility:visible;fill:#f57c00;fill-opacity:1;stroke:none;display:inline;color:#000;fill-rule:nonzero"/>
  <path d="m 12 968.36 c -2 0 -4 2 -4 4 l 0 4 -2 0 c -2 0 -4.01 1.898 -4 4 l 0 56 c 0 2.241 2.076 4 4.375 4 l 83.25 0 c 2.375 0 4.375 -2 4.375 -4 l 0 -50 c 0 -2 -2 -4 -4 -4 l -4 0 0 -10 c 0 -2 -2 -4 -4 -4 l -70 0 z m -6 10 48 0 c 1.015 0 2 0.988 2 2 l 0 4 34 0 c 1.082 0 2 0.944 2 2 l 0 50 c 0 1.108 -0.904 2 -2 2 l -84 0 c -1.025 0 -2 -0.892 -2 -2 l 0 -56 c 0 -1.087 0.958 -2 2 -2 z" style="visibility:visible;fill:#000;fill-opacity:0.322;stroke:none;display:inline;color:#000;fill-rule:nonzero"/>
  <g transform="matrix(1.999999,0,0,1.999999,31.999985,996.36222)" style="fill:#000;fill-opacity:0.322">
   <path d="m 3 0 c -1.108 0 -2 0.892 -2 2 l 0 12 c 0 1.108 0.892 2 2 2 l 10 0 c 1.108 0 2 -0.892 2 -2 l 0 -12 c 0 -1.108 -0.892 -2 -2 -2 z m 1 2 c 0.552 0 1 0.448 1 1 0 0.552 -0.448 1 -1 1 -0.552 0 -1 -0.448 -1 -1 0 -0.552 0.448 -1 1 -1 z m 8 0 c 0.552 0 1 0.448 1 1 0 0.552 -0.448 1 -1 1 c -0.552 0 -1 -0.448 -1 -1 0 -0.552 0.448 -1 1 -1 z m -4 1 c 1.657 0 3 1.343 3 3 0 1.657 -1.343 3 -3 3 -1.657 0 -3 -1.343 -3 -3 0 -1.657 1.343 -3 3 -3 z m -4 5 c 0.552 0 1 0.448 1 1 0 0.552 -0.448 1 -1 1 -0.552 0 -1 -0.448 -1 -1 0 -0.552 0.448 -1 1 -1 z m 8 0 c 0.552 0 1 0.448 1 1 0 0.552 -0.448 1 -1 1 -0.552 0 -1 -0.448 -1 -1 0 -0.552 0.448 -1 1 -1 z m -8.5 5 9 0 c 0.277 0 0.5 0.223 0.5 0.5 0 0.277 -0.223 0.5 -0.5 0.5 l -9 0 c -0.277 0 -0.5 -0.223 -0.5 -0.5 0 -0.277 0.223 -0.5 0.5 -0.5 z" style="fill:#000;fill-opacity:0.322;stroke:none"/>
   <path d="m -3.577 5.951 c 0 1.336 -0.875 2.419 -1.954 2.419 -1.079 0 -1.954 -1.083 -1.954 -2.419 0 -1.336 0.875 -2.419 1.954 -2.419 1.079 0 1.954 1.083 1.954 2.419 z" transform="matrix(0.51179914,0,0,0.41337621,10.830688,3.5398266)" style="fill:#000;fill-opacity:0.322;stroke:none"/>
  </g>
 </g>
</svg>
